assets/retool/mono.svg

<svg viewBox="0 0 24 24" xmlns="http://www.w3.org/2000/svg"><path d="m0 2.2a2.2 2.2 0 0 1 2.2-2.2h8.6a2.2 2.2 0 0 1 2.2 2.2v1.7a1.1 1.1 0 0 1 -1.1 1.1h-10.8a1.1 1.1 0 0 1 -1.1-1.1zm0 6.9a1.1 1.1 0 0 1 1.1-1.1h20.7a2.2 2.2 0 0 1 2.2 2.2v5.7a1.1 1.1 0 0 1 -1.1 1.1h-20.7a2.2 2.2 0 0 1 -2.2-2.2zm11 12a1.1 1.1 0 0 1 1.1-1.1h10.8a1.1 1.1 0 0 1 1.1 1.1v.7a2.2 2.2 0 0 1 -2.2 2.2h-8.6a2.2 2.2 0 0 1 -2.2-2.2z"/></svg>

<svg xmlns="http://www.w3.org/2000/svg" viewBox="0 0 24 24"><path d="M0 2.2A2.2 2.2 0 0 1 2.2 0h8.6A2.2 2.2 0 0 1 13 2.2v1.7A1.1 1.1 0 0 1 11.9 5H1.1A1.1 1.1 0 0 1 0 3.9zm0 6.9A1.1 1.1 0 0 1 1.1 8h20.7a2.2 2.2 0 0 1 2.2 2.2v5.7a1.1 1.1 0 0 1-1.1 1.1H2.2A2.2 2.2 0 0 1 0 14.8zm11 12a1.1 1.1 0 0 1 1.1-1.1h10.8a1.1 1.1 0 0 1 1.1 1.1v.7a2.2 2.2 0 0 1-2.2 2.2h-8.6a2.2 2.2 0 0 1-2.2-2.2z"/></svg>
